X: 36561
T: Sgoil Lionacliet Pipe Band's Welcome To New York
R: reel
M: 4/4
K: Amajor
L: 1/16
|:c4 e2c2 B4 c2B2|A2f2 fff2 f2a2f2e2|c2f2 fff2 f2a2e2f2|a2e2e2a2 c2f2e2B2|
c4 e2c2 B2e2c2B2|A2f2 fff2 f2a2f2e2|d2f2 fff2 f2e2a2f2|e2a2c2B2 c2A2 AAA2:|
|:c2a2a2c2 d2a2a2d2|c2a2c2A2 c2B2B2a2|A2a2B2a2 c2a2d2a2|e2a2c2A2 c2B2B2a2|
c2a2a2c2 d2a2a2d2|e2a2c2A2 c2B2B2c2|e2A2a2e2 f4 a2f2|e2a2c2B2 c2A2 AAA2:|

